build/finance/DebitCardOutline.svg

<svg xmlns="http://www.w3.org/2000/svg" fill="none" viewBox="0 0 24 24" focusable="false"><path d="M0 0H24V24H0z"/><path fill="#74767B" fill-rule="evenodd" d="M3 16C3 17.6569 4.34314 19 6 19L18 19C19.6569 19 21 17.6569 21 16L21 8C21 6.4467 19.8195 5.16912 18.3067 5.01549C18.2059 5.00525 18.1036 5 18 5L6 5C4.34315 5 3 6.34315 3 8L3 16ZM18 6.3C18.9389 6.3 19.7 7.06112 19.7 8L19.7 8.28958L4.4953 8.28958C4.42725 8.28958 4.36164 8.30003 4.3 8.31943L4.3 8C4.3 7.06112 5.06112 6.3 6 6.3L18 6.3ZM4.3 9.55972L4.3 16C4.3 16.9389 5.06112 17.7 6 17.7L18 17.7C18.9389 17.7 19.7 16.9389 19.7 16L19.7 9.58958L4.4953 9.58958C4.42725 9.58958 4.36164 9.57912 4.3 9.55972ZM13.8027 16.5919C13.6303 16.5919 13.465 16.5235 13.3431 16.4016C13.2212 16.2797 13.1527 16.1143 13.1527 15.9419L13.1527 11.4763C13.1527 11.1173 13.4437 10.8263 13.8027 10.8263L16.2868 10.8263C16.6458 10.8263 16.9368 11.1173 16.9368 11.4763C16.9368 11.8353 16.6458 12.1263 16.2868 12.1263L14.4527 12.1263L14.4527 12.912L15.6922 12.912C16.7084 12.912 17.5322 13.7358 17.5322 14.752C17.5322 15.7682 16.7084 16.5919 15.6922 16.5919L13.8027 16.5919ZM8.26388 10.834C7.9049 10.834 7.61388 11.125 7.61388 11.484L7.61388 12.6976C7.61388 13.3619 7.46173 14.0174 7.16909 14.6138L6.84592 15.2724C6.84274 15.2789 6.83969 15.2854 6.83675 15.2919L6.54215 15.2919C6.18317 15.2919 5.89215 15.5829 5.89215 15.9419C5.89215 16.3009 6.18317 16.5919 6.54215 16.5919L11.8201 16.5919C12.179 16.5919 12.4701 16.3009 12.4701 15.9419C12.4701 15.5829 12.179 15.2919 11.8201 15.2919L11.4288 15.2919L11.4288 11.484C11.4288 11.125 11.1377 10.834 10.7788 10.834L8.26388 10.834ZM10.1288 15.2919L10.1288 12.134L8.91388 12.134L8.91388 12.6976C8.91388 13.5604 8.71626 14.4118 8.33616 15.1864L8.28443 15.2919L10.1288 15.2919ZM15.6922 14.212L14.4527 14.212L14.4527 15.2919L15.6922 15.2919C15.9904 15.2919 16.2322 15.0502 16.2322 14.752C16.2322 14.4538 15.9904 14.212 15.6922 14.212Z"/></svg>

<svg xmlns="http://www.w3.org/2000/svg" fill="none" viewBox="0 0 24 24" focusable="false"><path fill="#74767B" fill-rule="evenodd" d="M3 16c0 1.65 1.34 3 3 3h12c1.65 0 3-1.35 3-3V8c0-1.56-1.19-2.84-2.7-2.99C18.2 5 18.1 5 18 5H6C4.34 5 3 6.34 3 8zm15-9.7c.93 0 1.7.76 1.7 1.7v.28H4.49c-.07 0-.13.02-.19.03V8c0-.94.76-1.7 1.7-1.7zM4.3 9.55V16c0 .93.76 1.7 1.7 1.7h12c.93 0 1.7-.77 1.7-1.7V9.58H4.49c-.07 0-.13-.01-.19-.03m9.04 6.85c.12.12.29.19.46.19h1.89c1.01 0 1.84-.83 1.84-1.84 0-1.02-.83-1.84-1.84-1.84h-1.24v-.79h1.83c.36 0 .65-.29.65-.65s-.29-.65-.65-.65H13.8c-.36 0-.65.29-.65.65v4.47c0 .17.07.33.19.46m-5.08-5.57c-.36 0-.65.29-.65.65v1.21c0 .67-.15 1.32-.45 1.92l-.32.66s-.01.01-.01.02h-.29c-.36 0-.65.29-.65.65s.29.65.65.65h5.28c.35 0 .65-.29.65-.65s-.3-.65-.65-.65h-.4v-3.81c0-.36-.29-.65-.65-.65zm1.86 4.46v-3.16H8.91v.56c0 .87-.2 1.72-.58 2.49l-.05.11zm4.33-1.08h1.24c.3 0 .54.24.54.54s-.24.54-.54.54h-1.24z"/></svg>
